static/logos/sender-glyph-color.svg

<svg width="50" height="37" viewBox="0 0 50 37" fill="none" xmlns="http://www.w3.org/2000/svg">
<g clip-path="url(#clip0_1_1151)">
<path fill-rule="evenodd" clip-rule="evenodd" d="M43.4997 0.000915527L39.5357 3.34507H44.5731L23.3203 19.9944V24.8625L46.7696 5.81688V9.95258L49.9898 7.20271V0.000915527H43.4997Z" fill="url(#paint0_linear_1_1151)"/>
<path fill-rule="evenodd" clip-rule="evenodd" d="M43.4293 20.9424V33.3074H3.40799V6.686H27.8466L31.9241 3.47293H0.1875V36.5204H46.6497V18.4049L43.4298 20.9424" fill="url(#paint1_linear_1_1151)"/>
<path fill-rule="evenodd" clip-rule="evenodd" d="M8.32812 11.733L23.3245 19.9952V24.8606L8.32812 15.0377V11.7327" fill="url(#paint2_linear_1_1151)"/>
</g>
<defs>
<linearGradient id="paint0_linear_1_1151" x1="50.0127" y1="0.0232231" x2="24.2462" y2="25.7896" gradientUnits="userSpaceOnUse">
<stop stop-color="#F57724"/>
<stop offset="1" stop-color="#ED1E24"/>
</linearGradient>
<linearGradient id="paint1_linear_1_1151" x1="35.935" y1="7.48027" x2="3.54181" y2="39.8736" gradientUnits="userSpaceOnUse">
<stop stop-color="#F57724"/>
<stop offset="1" stop-color="#ED1E24"/>
</linearGradient>
<linearGradient id="paint2_linear_1_1151" x1="18.7265" y1="15.3978" x2="13.7069" y2="20.4175" gradientUnits="userSpaceOnUse">
<stop stop-color="#F57724"/>
<stop offset="1" stop-color="#ED1E24"/>
</linearGradient>
<clipPath id="clip0_1_1151">
<rect width="50" height="36.6171" fill="white"/>
</clipPath>
</defs>
</svg>

<svg xmlns="http://www.w3.org/2000/svg" width="86.486" height="64" fill="none" viewBox="0 0 50 37"><g fill-rule="evenodd" clip-path="url(#a)" clip-rule="evenodd"><path fill="url(#b)" d="m43.5 0-3.964 3.345h5.037L23.32 19.995v4.867L46.77 5.817v4.136l3.22-2.75V0H43.5Z"/><path fill="url(#c)" d="M43.43 20.942v12.365H3.407V6.686h24.439l4.077-3.213H.188V36.52H46.65V18.405l-3.22 2.537"/><path fill="url(#d)" d="m8.328 11.733 14.997 8.262v4.866L8.328 15.038v-3.305"/></g><defs><linearGradient id="b" x1="50.013" x2="24.246" y1=".023" y2="25.79" gradientUnits="userSpaceOnUse"><stop stop-color="#F57724"/><stop offset="1" stop-color="#ED1E24"/></linearGradient><linearGradient id="c" x1="35.935" x2="3.542" y1="7.48" y2="39.874" gradientUnits="userSpaceOnUse"><stop stop-color="#F57724"/><stop offset="1" stop-color="#ED1E24"/></linearGradient><linearGradient id="d" x1="18.727" x2="13.707" y1="15.398" y2="20.418" gradientUnits="userSpaceOnUse"><stop stop-color="#F57724"/><stop offset="1" stop-color="#ED1E24"/></linearGradient><clipPath id="a"><path fill="#fff" d="M0 0h50v36.617H0z"/></clipPath></defs></svg>
